X: 1
T:The Ghost that 'aunted Bunty
M:6/8
L:1/8
C:Tommy Armstrong
K:G
|B2 A|G2FG2E|D3C2C|B2, A, B2, C| D6
|E2E G2 G|D2D G3|A2A DEF|G3G2 A
|B2 B B2 B|B2B2B2B2|c2BA2G|F2G A2 D
G2GG2G|GG2G2G|A2AA2G|F2ED2D
|G2GG2G|G2G GGG| A2A A2G|F2E DDD
|E2E G2G|D2DG G2| A2A DEF|G3G2ZZ||
B2AG2F|G2ED3|C2C B2,A,|B2,CD3
|E2E G2G|D2 D G3|A2A DEF|G3 G2ZZ||back to the song menu
-----------------------------------------------------------------------------
